public/icons/admin/certificate.svg

<svg width="17" height="20" viewBox="0 0 17 20" fill="none" xmlns="http://www.w3.org/2000/svg">
<path d="M8.99351 13.1843C8.83337 13.1977 8.6717 13.2043 8.50852 13.2043C8.31005 13.2043 8.11385 13.1941 7.91993 13.175C6.96061 13.0798 6.031 12.7535 5.19476 12.2185C4.35853 11.6835 3.63543 10.9525 3.07499 10.0755C3.06023 10.0519 3.04036 10.0329 3.01725 10.0203C2.99414 10.0076 2.96854 10.0018 2.94286 10.0033C2.91718 10.0048 2.89225 10.0135 2.87043 10.0288C2.8486 10.044 2.83059 10.0652 2.81807 10.0903L0.0857499 15.5891C-0.0182302 15.8016 -0.0345482 16.0565 0.0751243 16.2639C0.132215 16.3667 0.211747 16.4516 0.306225 16.5105C0.400702 16.5693 0.507013 16.6003 0.615138 16.6005H3.57516C3.67827 16.5962 3.78053 16.6228 3.87139 16.6776C3.96224 16.7323 4.03841 16.8132 4.09202 16.9119L5.55913 19.66C5.61282 19.762 5.689 19.8468 5.78037 19.9064C5.87174 19.9659 5.97523 19.9981 6.08093 20C6.30634 19.986 6.53973 19.8219 6.63346 19.5921L9.14227 13.424C9.1531 13.3972 9.15754 13.3677 9.15515 13.3384C9.15276 13.3092 9.14362 13.2811 9.12863 13.2569C9.11364 13.2328 9.09331 13.2134 9.06962 13.2007C9.04594 13.1879 9.01971 13.1823 8.99351 13.1843ZM16.9112 15.5755L14.1967 10.0865C14.1842 10.0616 14.1662 10.0406 14.1445 10.0256C14.1228 10.0105 14.0981 10.0018 14.0726 10.0002C14.0471 9.99872 14.0216 10.0044 13.9986 10.0168C13.9756 10.0292 13.9558 10.0479 13.9409 10.0712C13.1944 11.2424 12.1628 12.1484 10.9691 12.6812C10.8226 12.7459 10.704 12.8715 10.6382 13.0318L9.23942 16.4781C9.22141 16.5221 9.21209 16.5699 9.21209 16.6183C9.21209 16.6667 9.22141 16.7145 9.23942 16.7585L10.3881 19.5882C10.4811 19.8181 10.7141 19.986 10.9392 20C11.0449 19.9971 11.1483 19.9638 11.2393 19.9034C11.3303 19.843 11.406 19.7575 11.4591 19.6549L12.9212 16.9107C13.0309 16.7046 13.2298 16.5992 13.4442 16.6005H16.4334C16.6865 16.6005 16.8782 16.4526 16.9647 16.1755C16.9951 16.0771 17.0061 15.9725 16.9968 15.8689C16.9876 15.7653 16.9584 15.6652 16.9112 15.5755Z" fill="white"/>
<path d="M8.5 0C5.4666 0 3 2.69125 3 6C3 9.30875 5.46774 12 8.5 12C11.5323 12 14 9.30833 14 6C14 2.69167 11.533 0 8.5 0ZM8.5 9.33333C7.89567 9.33333 7.30491 9.13784 6.80242 8.77157C6.29994 8.40529 5.9083 7.8847 5.67703 7.27561C5.44577 6.66652 5.38526 5.9963 5.50316 5.3497C5.62106 4.7031 5.91207 4.10915 6.3394 3.64298C6.76672 3.1768 7.31117 2.85933 7.90389 2.73072C8.49661 2.6021 9.11098 2.66811 9.66931 2.9204C10.2276 3.17269 10.7049 3.59994 11.0406 4.1481C11.3763 4.69626 11.5556 5.34073 11.5556 6C11.5545 6.88372 11.2323 7.73092 10.6595 8.35581C10.0867 8.98069 9.31007 9.33223 8.5 9.33333Z" fill="white"/>
</svg>

<svg xmlns="http://www.w3.org/2000/svg" fill="none" viewBox="0 0 17 20"><path fill="#fff" d="M9 13.18a5.81 5.81 0 0 1-1.08 0 6.19 6.19 0 0 1-2.73-.96 7.02 7.02 0 0 1-2.17-2.2.14.14 0 0 0-.15 0 .16.16 0 0 0-.05.07l-2.73 5.5a.75.75 0 0 0-.01.67c.05.1.13.2.23.25.1.06.2.09.3.09h2.97c.1 0 .2.02.3.08.08.05.16.13.21.23l1.47 2.75c.05.1.13.19.22.25.1.06.2.09.3.09a.67.67 0 0 0 .55-.4l2.51-6.18a.19.19 0 0 0-.01-.16.16.16 0 0 0-.06-.06.14.14 0 0 0-.08-.02Zm7.91 2.4-2.71-5.5a.16.16 0 0 0-.06-.05.14.14 0 0 0-.15 0 6.87 6.87 0 0 1-3.03 2.66.65.65 0 0 0-.32.34l-1.4 3.45a.37.37 0 0 0 0 .28l1.15 2.83c.1.23.32.4.55.41.1 0 .2-.04.3-.1.09-.06.17-.14.22-.25l1.46-2.74c.11-.2.31-.31.52-.3h3c.25 0 .44-.16.52-.43a.8.8 0 0 0-.05-.6ZM8.5 0C5.47 0 3 2.7 3 6s2.47 6 5.5 6S14 9.3 14 6s-2.47-6-5.5-6Zm0 9.33c-.6 0-1.2-.2-1.7-.56-.5-.36-.9-.89-1.12-1.5a3.62 3.62 0 0 1 .66-3.63c.43-.46.97-.78 1.56-.9.6-.14 1.21-.07 1.77.18s1.03.68 1.37 1.23a3.55 3.55 0 0 1-.38 4.2c-.57.63-1.35.98-2.16.98Z"/></svg>
